X:1
T:Fuit homo missus a Deo - Palestrina
T:#
%%score [ 1 2 3 4 ]
L:1/8
Q:1/4=200
M:none
K:F
V:1 treble nm="Soprano"
V:2 treble nm="Alto"
V:3 treble-8 nm="Tenor"
V:4 bass nm="Bass"
V:1
"^Fuit homo missus a Deo""^G. P. da Palestrina\n(1526-94)" z16 | z8 c8- | c8 e8 | f8 e4 f4 | %4
w: |Fu\-|* it|ho- mo mis-|
 c4 e4 d8 | c4 (F2 G2 A2 B2 c4- | c2 B2 A8 G4) |[M:4/2] A4 (F2 G2 A2 B2 c4- | c4 B4) (A4 F4 | %9
w: sus a De-|o, mis\- * * * *||sus a * * * *|* * De\- *|
 A6 B2) c8 | z16 | z16 | c16 | e8 f8 | e8 f8 | c4 e4 (d8 | c4 d6 c2 c4- | c4 =B4) c8- | c8 z8 | %19
w: * * o,|||fu-|it ho-|mo mis-|sus a De\-||* * o,||
 z4 c4 A4 B4 | c4 d8 c4- | c4 B4 c8 | c8 z8 | z8 z4 c4- | c4 A4 B8 | c8 d8 | c4 B4 (A8 | G8) F8- | %28
w: cu- i no-|men e- rat|* Jo- an-|nes,|cu\-|* i no-|men e-|rat Jo- an\-|* nes,|
 F8 z8 | z16 | z16 | z4 f8 d4 | e8 f8 | g8 f4 e4 | d8 c4 c4 | d4 c4 B8 | A16- | A8 z8 | z16 | %39
w: |||cu- i|no- men|e- rat Jo-|an- nes, e-|rat Jo- an-|nes.|||
 z8 z4 A4 | B8 A8 | z4 e4 f6 e2 | d4 c4 (d2 c2 B2 A2) | G8 z8 | z16 | z8 d8 | e4 e4 f6 e2 | %47
w: Hic|ve- nit|in te- sti-|mo- ni- um, * * *|||ut|te- sti- mo- ni-|
 d4 f4 e4 d4- | d4 c4 (B2 c2 d2 _e2 | d4) c8 =B4 | c16 | z4 d4 e4 e4 | f6 e2 d4 f4 | %53
w: um per- hi- be\-|* ret de * * *|* lu- mi-|ne,|ut te- sti-|mo- ni- um per-|
 e4 (d6 ^c=B c4) | d8 (B6 A2 | G4 F4) B4 B4 | A8 z4 c4 | d4 f8 e4 | d4 d4 c4 G4 | A4 B4 (c6 B2 | %60
w: hi- be\- * * *|ret de *|* * lu- mi-|ne, et|pa- ra- ret|Do- mi- no ple-|bem per- fe\- *|
 A4 G8 ^F4) | G8 z4 c4 | d4 e4 f8 | e4 A4 (B4 A2 G2 | F4) G4 A8 | G8 z8 | z16 | d8 e4 g4- | %68
w: |ctam, ple-|bem per- fe-|ctam, ple- bem * *|* per- fe-|ctam,||et pa- ra\-|
 g4 f4 e4 e4 | d4 G4 A4 B4 | (c8 B2 A2 G2 F2 | G8) A8 | z4 F4 G4 A4 | B8 A8- | A16 | z4 G4 A4 B4 | %76
w: * ret Do- mi-|no ple- bem per-|fe\- * * * *|* ctam,|ple- bem per-|fe- ctam,||ple- bem per-|
 (c6 B2 A4 G4) | F8 z4 G4 | A4[Q:1/4=198] B4[Q:1/4=194] (c8 | %79
w: fe\- * * *|ctam, ple-|bem per- fe\-|
[Q:1/4=189] A6[Q:1/4=186] B2[Q:1/4=184] c4[Q:1/4=181] d4- | %80
w: |
[Q:1/4=179] d4[Q:1/4=176] c4[Q:1/4=172] B8) |[Q:1/4=170] A16 |] %82
w: |ctam.|
V:2
 C16 | E8 F8 | E4 F4 C4 E4 | D8 C4 (F2 G2 | A2 B2 c8) B4 | (A6 G2 F8- | F4 E4 D8) | %7
w: Fu-|it ho-|mo mis- sus a|De- o, fu\- *|* * * it|ho\- * *||
[M:4/2] C4 (D2 E2 F2 E2 E2 DC | D6 E2 F2 G2 A4- | A4 G2 F2 G4 C4- | C4 =B,4) C8- | C8 G,8 | %12
w: mo mis\- * * * * * *|||* * sus|* a|
 (A,6 B,2) C8 | G8 (F6 G2) | (A2 B2 c8) B4 | A4 c4 B4 G4 | (A12 F4 | G8 E6 D2 | E4 F4 D8) | C8 z8 | %20
w: De\- * o,|fu- it *|* * * ho-|mo mis- sus a|De\- *|||o,|
 z16 | z8 z4 G4- | G4 E4 F8 | G8 A8 | G4 (F8 E2 D2 | E4 F4) (D2 E2 F2 G2 | A4 G6 F2 F4- | %27
w: |cu\-|* i no-|men e-|rat Jo\- * *|* * an\- * * *||
 F4 E4) F8 | z8 z4 F4 | D4 E4 F4 G4- | G4 F8 E4 | A8 F8 | z4 c4 B4 A4 | G8 A4 c4- | c4 B4 A4 (G4- | %35
w: * * nes,|cu-|i no- men e\-|* rat Jo-|an- nes,|e- rat Jo-|an- nes, e\-|* rat Jo- an\-|
 G2 F2 F8 E4) | F8 z4 E4 | F8 E4 G4 | A6 G2 (F4 E4- | E2 D2 D8) ^C4 | D8 z8 | z4 E4 A6 G2 | %42
w: |nes. Hic|ve- nit in|te- sti- mo\- *|* * * ni-|um,|in te- sti-|
 F4 E4 D8 | z16 | z16 | z16 | G8 A4 A4 | B6 A2 G4 B4- | B4 A4 G8 | F6 E2 D4 D4 | C4 G4 A4 A4 | %51
w: mo- ni- um,||||ut- te- sti-|mo- ni- um per\-|* hi- be-|ret de lu- mi-|ne, ut te- sti-|
 B6 A2 G4 A4- | A4 F4 G4 A4 | B8 (A6 G2 | F2 D2 G8 F2 E2 | D2 E2 F8) E4 | F8 z8 | z8 z4 C4 | %58
w: mo- ni- um per\-|* hi- be- ret|de lu\- *||* * * mi-|ne,|et|
 D4 F8 E4 | D4 D4 C4 G4 | A4 B4 (c8- | c4 B4 A6 G2 | A2 =B2 c8 B4) | c8 z8 | z16 | z4 G4 A4 c4- | %66
w: pa- ra- ret|Do- mi- no ple-|bem per- fe\-|||ctam,||et pa- ra\-|
 c4 B4 A4 A4 | G8 z4 G4 | A4 B4 (c2 B2 A2 G2) | (F4 E4 D8 | C4 G6 F2 F4- | F4 E4 F6 E2 | D12 C4) | %73
w: * ret Do- mi-|no ple-|bem per- fe\- * * *|||||
 B,8 z4 C4 | D4 (F6 E2 D4- | D4) C4 F8- | F4 E4 (F4 E2 D2 | C4) D4 E4 (G4- | G2 F2) (F8 E4) | %79
w: ctam, et|pa- ra\- * *|* ret Do\-|* mi- no * *|* ple- bem per\-|* * fe\- *|
 F16- | F16 | F16 |] %82
w: ctam.|||
V:3
 z16 | z16 | z16 | z16 | z16 | z16 | z16 |[M:4/2][K:treble-8] z16 | z8 c8- | c8 e8 | f8 e4 f4 | %11
w: ||||||||Fu\-|* it|ho- mo mis-|
 c4 e4 d8 | c4 F4 (A2 G2 A2 B2 | c2 G2) (c8 =B4) | c8 (d6 e2 | f4) (g6 f2 d4) | e4 (f6 e2 c4 | %17
w: sus a De-|o, fu- it * * *|* * ho\- *|mo mis\- *|* sus * *|a De\- * *|
 d8) c8 | z8 z4 g4- | g4 e4 f8 | g8 a8 | g4 f4 (e6 d2) | (e2 f2 g6 f2 f4- | f4 e4 f6 e2 | %24
w: * o,|cu\-|* i no-|men e-|rat Jo- an\- *|||
 c4 d8 c2 B2 | A8 B6 A2 | F4 G4 A4 F4) | c8 z4 c4 | A4 B4 c4 d4- | (d4 c2 B2 A4 G4) | %30
w: |||nes, cu-|i no- men e\-||
 A4 B4 (c6 B2 | A2 F2 c8 =B4) | c8 z4 f4- | f4 e4 d4 c4 | (g6 f2 e2 d2 e4) | (f8 g8) | c8 z4 c4 | %37
w: rat Jo- an\- *||nes, no\-|* men e- rat|Jo\- * * * *|an\- *|nes. Hic|
 d8 c4 e4 | f6 e2 d4 c4 | (d8 e8) | z4 g4 f6 e2 | d4 c4 d8 | z8 z4 d4 | e4 e4 f6 e2 | %44
w: ve- nit in|te- sti- mo- ni-|um, *|in te- sti-|mo- ni- um,|ut|te- sti- mo- ni-|
 d4 f4 e4 d4- | d4 c8 =B4 | c4 c4 F8 | z8 z4 G4 | B4 F4 G8 | z8 z4 d4 | e4 e4 f6 e2 | d4 B4 c8 | %52
w: um per- hi- be\-|* ret de|lu- mi- ne,|de|lu- mi- ne,|ut|te- sti- mo- ni-|um per- hi-|
 d8 G4 d4 | (g6 f2 e4) e4 | d4 (G2 A2 B2 c2 d4- | d4) (c4 B8 | c4 d6 c2 c4-) | c4 =B4 c8 | z16 | %59
w: be- ret de|lu\- * * mi-|ne, de * * * *|* lu\- *||* mi- ne,||
 z16 | z8 z4 c4 | d8 f8- | f4 e4 d4 d4 | c8 z4 c4 | d4 e4 (f4 e2 d2 | e2 f2 g6 f2 f4 | %66
w: |et|pa- ra\-|* ret Do- mi-|no ple-|bem per- fe\- * *||
 e4 d6 c2 c4- | c4 =B4) c8 | z8 z4 c4 | d4 e4 (f8- | f4 e4 d8) | c16 | (B6 c2 d2 e2) (f4- | %73
w: |* * ctam,|ple-|bem per- fe\-||ctam,|per\- * * * fe\-|
 f4 e4) f8 | z4 c4 d4 f4- | f4 e4 d4 d4 | c8 z4 G4 | A4 B4 (c8 | F8 G8) | F8 A8 | B4 c4 d8 | c16 |] %82
w: * * ctam,|et pa- ra\-|* ret Do- mi-|no ple-|bem per- fe\-||ctam, ple-|bem per- fe-|ctam.|
V:4
 z16 | z16 | z16 | z16 | z16 | F,16 | A,8 B,8 |[M:4/2] A,4 B,4 F,4 A,4 | G,8 F,8 | F,8 C,4 E,4 | %10
w: |||||Fu-|it ho-|mo mis- sus a|De- o,|mis- sus a|
 D,8 C,4 (F,2 G,2 | A,2 B,2) (C8 =B,4) | C8 z4 F,4 | C,4 E,4 D,8 | C,8 z8 | z4 C4 G,4 B,4 | %16
w: De- o, a *|* * De\- *|o, mis-|sus a De-|o,|mis- sus a|
 (A,4 F,4 A,8) | G,8 z4 C4- | C4 A,4 B,8 | C8 D8 | C4 B,4 (A,6 B,2 | C4 D4) C8 | C8 B,4 A,4 | %23
w: De\- * *|o, cu\-|* i no-|men e-|rat Jo- an\- *|* * nes,|e- rat Jo-|
 G,8 F,8 | z16 | z16 | z16 | z8 F,8- | F,4 D,4 E,4 F,4 | G,8 F,4 E,4 | D,8 C,8 | (F,6 E,2) D,8 | %32
w: an- nes,||||cu\-|* i no- men|e- rat Jo-|an- nes,|Jo\- * an-|
 C,8 z8 | z16 | z8 C8 | B,4 A,4 G,8 | (F,6 G,2 A,8) | z16 | z8 z4 A,4 | B,8 A,8 | z4 G,4 A,6 G,2 | %41
w: nes,||e-|rat Jo- an-|nes. * *||Hic|ve- nit|in te- sti-|
 F,4 E,4 D,8 | z4 A,4 B,4 B,4 | C6 B,2 A,4 B,4- | B,4 A,4 G,8 | F,4 E,4 D,4 D,4 | C,8 z8 | z16 | %48
w: mo- ni- um,|ut te- sti-|mo- ni- um per\-|* hi- be-|ret de lu- mi-|ne,||
 z8 z4 G,4 | B,4 F,4 G,8 | C,8 z8 | z16 | z16 | G,8 A,4 A,4 | B,6 A,2 G,4 B,4- | B,4 A,4 G,8 | %56
w: de|lu- mi- ne,||||ut te- sti-|mo- ni- um per\-|* hi- be-|
 F,12 E,4 | D,4 D,4 C,8 | z16 | z4 G,4 A,4 C4- | C4 B,4 A,4 A,4 | G,8 z8 | z16 | z4 F,4 G,4 A,4 | %64
w: ret de|lu- mi- ne,||et pa- ra\-|* ret Do- mi-|no||ple- bem per-|
 (B,4 A,2 G,2 F,2 G,2 A,2 B,2 | C6 B,2 A,8 | G,8 F,8 | G,8) C,4 E,4 | D,8 C,8 | z16 | z16 | %71
w: fe\- * * * * * *|||* ctam, per-|fe- ctam,|||
 z8 F,8 | G,4 B,8 A,4 | G,4 G,4 F,8- | F,8 z8 | z16 | z4 C,4 D,4 E,4 | (F,4 D,4 C,4 E,4 | %78
w: et|pa- ra- ret|Do- mi- no|||ple- bem per-|fe\- * * *|
 D,8) C,8 | z4 (F,6 E,2 D,2 C,2 | B,,4 A,,4) B,,8 | F,16 |] %82
w: * ctam,|per\- * * *|* * fe-|ctam.|

